X: 122
M: C
L: 1/8
K: Em
(G>A) | B2 E2 B3 A | G3 (TF>E) E2 (DE) |
(e>ge) d (B>AB) ^d | e2 (E>F) E2 ::
(B>c) | d3 e {e}d2 (cB) | g2 (d>e) d2 (gf) |
e3 f (g>fg) a | b2 (e>f) e2 (dc) |
(e>ge) d (B>AB) ^d | e2 (TE>F) E2 :|

